**kern	**kern	**kern	**kern
*staff3	*staff4	*staff1	*staff2
*clefF4	*clefF4	*clefG2	*clefG2
*k[f#c#]	*k[f#c#]	*k[f#c#]	*k[f#c#]
*M2/4	*M2/4	*M2/4	*M2/4
*D:	*D:	*D:	*D:
=-	=-	=-	=-
2r	8r	(16ALL	2r
.	.	16F#	.
.	4DD 4D	16f#	.
.	.	16dJJ	.
.	.	16GLL	.
.	.	16g	.
.	[8AA [8A	16e	.
.	.	16c#JJ)	.
=293	=293	=293	=293
2r	8AA] 8A]	(16ff#LL	2r
.	.	16dd	.
.	4BB 4B	16ddd	.
.	.	16ff#JJ	.
.	.	16ddLL	.
.	.	16ccc#	.
.	[8FF# [8F#	16aa	.
.	.	16ddJJ)	.
=294	=294	=294	=294
2r	8FF#] 8F#]	(16aLL	2r
.	.	16d	.
.	4GG 4G	16B	.
.	.	16bJJ	.
.	.	16gLL	.
.	.	16d	.
.	[8BB [8B	16dd	.
.	.	16bJJ)	.
=295	=295	=295	=295
2r	8BB] 8B]	(16ggLL	2r
.	.	16dd	.
.	4D 4d	16a	.
.	.	16aaJJ	.
.	.	16ff#LL	.
.	.	16dd	.
.	8DD 8D	16ddd	.
.	.	16aaJJ)	.
=296	=296	=296	=296
2r	8r	24eLL	2r
.	.	24d	.
.	.	24f#J	.
.	4AA 4A	8A'J	.
.	.	24eeLL	.
.	.	24dd	.
.	.	24ff#J	.
.	[8DD [8D	8a'J	.
=297	=297	=297	=297
2r	8DD] 8D]	24f#LL	2r
.	.	24e	.
.	.	24gJ	.
.	4CC# 4C#	8A'J	.
.	.	24ff#LL	.
.	.	24ee	.
.	.	24ggJ	.
.	[8AA [8A	8a'J	.
=298	=298	=298	=298
2r	8AA] 8A]	24ggLL	2r
.	.	24ff#	.
.	.	24aaJ	.
.	4DD 4D	8dd'J	.
.	.	24gLL	.
.	.	24f#	.
.	.	24aJ	.
.	[8FF# [8F#	8d'J	.
=299	=299	=299	=299
2r	8FF#L] 8F#]	24dLL	2r
.	.	24c#	.
.	.	24eJ	.
*	*	*clefF4	*
.	8AAJ	24AL	.
.	.	24E	.
.	.	24C#JJ	.
.	8AAA	4r	.
.	8r	.	.
*	*	*clefG2	*
=300:|!|:	=300:|!|:	=300:|!|:	=300:|!|:
*-	*-	*-	*-
